images/logo.svg

<svg width="203" height="49" viewBox="0 0 203 49" fill="none" xmlns="http://www.w3.org/2000/svg">
<path d="M10.9965 39.0327C9.3828 40.8932 6.55886 41.0792 5.0552 39.1258C2.78138 36.1676 1.20438 32.7071 0.470885 29.0048C-0.556002 23.8327 0.104139 18.4373 2.37796 13.6932C4.65178 8.93036 8.39259 5.06058 13.0319 2.66058C16.351 0.930343 20.0001 0.0373185 23.6859 0.00010915C26.1247 -0.0184955 27.7201 2.3443 27.2983 4.78151C26.8766 7.21873 24.5477 8.76291 22.1272 9.06059C20.3668 9.26524 18.6248 9.80478 17.0294 10.6234C14.0955 12.149 11.7483 14.5862 10.318 17.5815C8.88769 20.5769 8.46593 23.9815 9.10774 27.2374C9.45615 29.0234 10.1346 30.735 11.0698 32.2606C12.3718 34.3816 12.6102 37.1909 10.9965 39.0327Z" fill="url(#paint0_linear_2129_21940)"/>
<path d="M18.478 5.24633C17.7995 2.88353 19.1565 0.353298 21.577 0.111437C23.9058 -0.111819 26.253 -0.000191401 28.5635 0.464926C32.3226 1.22772 35.8434 2.88353 38.8324 5.32075C41.8213 7.75796 44.1868 10.8835 45.7455 14.437C47.2858 17.9905 47.9827 21.8789 47.7443 25.7487C47.5059 29.6185 46.3506 33.3952 44.3702 36.7254C42.3898 40.0557 39.6575 42.8464 36.3935 44.8929C33.1295 46.9208 29.4253 48.1301 25.6112 48.4092C23.264 48.5766 20.9168 48.3906 18.6247 47.8696C16.2592 47.3301 15.214 44.651 16.1858 42.3813C17.1577 40.1115 19.7616 39.1441 22.1821 39.4231C23.1173 39.5348 24.0525 39.5534 24.9877 39.4789C27.3899 39.3115 29.7371 38.5487 31.7908 37.265C33.8446 35.9813 35.5683 34.2138 36.8153 32.1115C38.0622 30.0092 38.7957 27.6464 38.9424 25.1905C39.0891 22.7533 38.6673 20.2975 37.6771 18.0463C36.7052 15.8138 35.2016 13.8417 33.3128 12.2975C31.4241 10.7719 29.2053 9.71145 26.8398 9.22773C25.9229 9.04168 24.9877 8.94866 24.0525 8.93006C21.6137 8.91145 19.1565 7.62773 18.478 5.24633Z" fill="url(#paint1_linear_2129_21940)"/>
<g opacity="0.2">
<path d="M13.0497 36.5588C11.6928 38.103 9.32728 38.2705 8.08035 36.6332C5.73318 33.5449 4.28453 29.8239 3.95446 25.8797C3.53271 20.6704 5.09137 15.5169 8.31873 11.4425C11.5461 7.38669 16.1854 4.72622 21.2648 4.05645C25.134 3.53552 29.0215 4.18668 32.4873 5.87971C34.321 6.77273 34.6694 9.15413 33.4775 10.8099C32.2672 12.4844 29.9567 12.782 28.0313 12.0937C26.1792 11.4425 24.1988 11.2193 22.2184 11.4797C19.0094 11.9076 16.0754 13.582 14.0583 16.1495C12.0229 18.7169 11.0326 21.9728 11.3077 25.2472C11.4727 27.2751 12.1145 29.21 13.1414 30.9216C14.205 32.6704 14.4067 35.0146 13.0497 36.5588Z" fill="url(#paint2_linear_2129_21940)"/>
<path d="M8.48339 18.5861C6.55798 17.8791 5.53109 15.7209 6.57631 13.9163C8.41004 10.7349 11.0689 8.11162 14.3146 6.32557C18.6422 3.94417 23.685 3.2744 28.471 4.40929C33.257 5.56278 37.4563 8.46511 40.2802 12.5581C43.1042 16.6512 44.3328 21.6558 43.746 26.6047C43.1592 31.5535 40.7937 36.1303 37.1079 39.4233C33.4221 42.7163 28.6544 44.521 23.74 44.5024C18.7889 44.4652 14.0579 42.6047 10.4088 39.2559C7.67655 36.7442 5.69613 33.5442 4.66924 30.0093C4.08245 28.0186 5.5861 26.1582 7.62154 25.9349C9.65698 25.7116 11.4174 27.2558 12.2242 29.1535C12.9393 30.8651 14.0029 32.4093 15.3965 33.6745C17.6887 35.7954 20.6777 36.9675 23.795 36.9861C26.9123 37.0047 29.9013 35.8698 32.2302 33.7861C34.559 31.7024 36.0443 28.8186 36.4294 25.693C36.7961 22.5675 36.026 19.4047 34.2473 16.8372C32.4685 14.2512 29.8096 12.4279 26.8023 11.7023C23.7767 10.9767 20.6043 11.4046 17.8721 12.9116C16.2034 13.8233 14.7914 15.0698 13.7095 16.5581C12.4809 18.214 10.4088 19.293 8.48339 18.5861Z" fill="url(#paint3_linear_2129_21940)"/>
</g>
<path d="M196.644 10.3286H203V38.1365H196.644V10.3286Z" fill="#E1E7EB"/>
<path d="M187.321 38.1365L185.931 33.7667H175.602L174.212 38.1365H167.26L176.715 10.3286H184.819L194.273 38.1365H187.321ZM177.509 27.8079H184.024L180.767 17.5984L177.509 27.8079Z" fill="#E1E7EB"/>
<path d="M167.249 38.1365H160.416L156.722 32.8927L153.027 38.1365H146.194L153.305 28.0462L146.433 18.2737H153.266L156.722 23.1997L160.178 18.2737H167.011L160.138 28.0462L167.249 38.1365Z" fill="#E1E7EB"/>
<path d="M131.861 30.5887C132.55 32.4425 134.139 33.3695 136.628 33.3695C138.244 33.3695 139.515 32.8663 140.442 31.8599L145.209 34.6009C143.249 37.3288 140.363 38.6927 136.549 38.6927C133.212 38.6927 130.537 37.6995 128.524 35.7133C126.538 33.727 125.545 31.2243 125.545 28.2051C125.545 25.2125 126.525 22.723 128.485 20.7367C130.471 18.724 133.013 17.7176 136.112 17.7176C138.999 17.7176 141.395 18.724 143.302 20.7367C145.236 22.723 146.202 25.2125 146.202 28.2051C146.202 29.0526 146.123 29.8471 145.964 30.5887H131.861ZM131.742 26.1394H140.283C139.7 24.0472 138.297 23.0011 136.072 23.0011C133.768 23.0011 132.325 24.0472 131.742 26.1394Z" fill="#E1E7EB"/>
<path d="M114.917 17.7176C117.194 17.7176 119.022 18.4724 120.399 19.9819C121.776 21.465 122.465 23.4513 122.465 25.9408V38.1365H116.506V26.4572C116.506 25.4508 116.254 24.6563 115.751 24.0737C115.274 23.491 114.572 23.1997 113.646 23.1997C112.666 23.1997 111.898 23.5308 111.341 24.1928C110.812 24.8549 110.547 25.7686 110.547 26.9339V38.1365H104.588V26.4572C104.588 25.4508 104.336 24.6563 103.833 24.0737C103.357 23.491 102.655 23.1997 101.728 23.1997C100.748 23.1997 99.9799 23.5308 99.4238 24.1928C98.8941 24.8549 98.6293 25.7686 98.6293 26.9339V38.1365H92.6704V18.2737H98.6293V20.1011C99.7151 18.5121 101.489 17.7176 103.952 17.7176C106.257 17.7176 107.991 18.5915 109.157 20.3395C110.375 18.5915 112.295 17.7176 114.917 17.7176Z" fill="#E1E7EB"/>
<path d="M85.0794 34.5215C82.2721 37.3023 78.8557 38.6927 74.8302 38.6927C70.8047 38.6927 67.3883 37.3023 64.581 34.5215C61.7738 31.7407 60.3701 28.3111 60.3701 24.2326C60.3701 20.1541 61.7738 16.7244 64.581 13.9436C67.3883 11.1629 70.8047 9.77246 74.8302 9.77246C78.8557 9.77246 82.2721 11.1629 85.0794 13.9436C87.8867 16.7244 89.2903 20.1541 89.2903 24.2326C89.2903 28.3111 87.8867 31.7407 85.0794 34.5215ZM69.0303 30.1914C70.5928 31.7275 72.5261 32.4955 74.8302 32.4955C77.1343 32.4955 79.0544 31.7275 80.5904 30.1914C82.153 28.6553 82.9342 26.6691 82.9342 24.2326C82.9342 21.7961 82.153 19.8098 80.5904 18.2737C79.0544 16.7377 77.1343 15.9697 74.8302 15.9697C72.5261 15.9697 70.5928 16.7377 69.0303 18.2737C67.4942 19.8098 66.7262 21.7961 66.7262 24.2326C66.7262 26.6691 67.4942 28.6553 69.0303 30.1914Z" fill="#E1E7EB"/>
<defs>
<linearGradient id="paint0_linear_2129_21940" x1="13.6919" y1="0.000909151" x2="13.6919" y2="48.459" gradientUnits="userSpaceOnUse">
<stop stop-color="#68E1FC"/>
<stop offset="1" stop-color="#DBFFFF" stop-opacity="0.5"/>
</linearGradient>
<linearGradient id="paint1_linear_2129_21940" x1="24.081" y1="49.3473" x2="36.7767" y2="2.64759" gradientUnits="userSpaceOnUse">
<stop stop-color="#68E1FC"/>
<stop offset="1" stop-color="#DBFFFF" stop-opacity="0.5"/>
</linearGradient>
<linearGradient id="paint2_linear_2129_21940" x1="19.03" y1="3.88441" x2="19.03" y2="44.4923" gradientUnits="userSpaceOnUse">
<stop stop-color="#DBFFFF"/>
<stop offset="1" stop-color="#68E1FC"/>
</linearGradient>
<linearGradient id="paint3_linear_2129_21940" x1="18.9614" y1="43.8914" x2="29.6103" y2="4.72031" gradientUnits="userSpaceOnUse">
<stop stop-color="#DBFFFF"/>
<stop offset="1" stop-color="#68E1FC"/>
</linearGradient>
</defs>
</svg>

<svg width="203" height="49" fill="none" xmlns="http://www.w3.org/2000/svg"><path d="M10.996 39.033c-1.613 1.86-4.437 2.046-5.94.093A24.383 24.383 0 01.47 29.005C-.556 23.833.104 18.437 2.378 13.693A24.081 24.081 0 0113.032 2.661 23.54 23.54 0 0123.686 0c2.439-.02 4.034 2.343 3.612 4.78-.421 2.438-2.75 3.982-5.17 4.28a15.039 15.039 0 00-5.099 1.562 15.211 15.211 0 00-6.711 6.958 15.507 15.507 0 00-1.21 9.656 15.236 15.236 0 001.962 5.024c1.302 2.12 1.54 4.93-.074 6.772z" fill="url(#paint0_linear_2129_21940)"/><path d="M18.478 5.246c-.679-2.362.678-4.893 3.099-5.135a23.824 23.824 0 016.986.354c3.76.763 7.28 2.419 10.27 4.856a24.392 24.392 0 016.913 9.116 24.685 24.685 0 011.998 11.312 24.446 24.446 0 01-3.374 10.976 24.273 24.273 0 01-7.976 8.168 23.732 23.732 0 01-10.783 3.516 23.83 23.83 0 01-6.986-.54c-2.366-.539-3.411-3.218-2.44-5.488.973-2.27 3.577-3.237 5.997-2.958.935.112 1.87.13 2.806.056a14.81 14.81 0 006.803-2.214 15.242 15.242 0 005.024-5.154 15.34 15.34 0 002.127-6.92 15.449 15.449 0 00-1.265-7.145 15.362 15.362 0 00-4.364-5.748 15.147 15.147 0 00-6.473-3.07 15.58 15.58 0 00-2.788-.298c-2.438-.019-4.895-1.302-5.574-3.684z" fill="url(#paint1_linear_2129_21940)"/><g opacity=".2"><path d="M13.05 36.559c-1.357 1.544-3.723 1.712-4.97.074A20.603 20.603 0 013.954 25.88 20.56 20.56 0 018.32 11.443c3.227-4.056 7.866-6.717 12.946-7.387 3.869-.52 7.756.13 11.222 1.824 1.834.893 2.182 3.274.99 4.93-1.21 1.674-3.52 1.972-5.446 1.284a12.551 12.551 0 00-5.813-.614 12.49 12.49 0 00-8.16 4.67 12.915 12.915 0 00-2.75 9.097 13.093 13.093 0 001.833 5.675c1.064 1.748 1.266 4.093-.091 5.637z" fill="url(#paint2_linear_2129_21940)"/><path d="M8.483 18.586c-1.925-.707-2.952-2.865-1.907-4.67a20.105 20.105 0 017.739-7.59A19.849 19.849 0 0128.47 4.409c4.786 1.154 8.985 4.056 11.81 8.15a20.5 20.5 0 013.465 14.046c-.587 4.948-2.952 9.525-6.638 12.818a19.961 19.961 0 01-13.368 5.08 19.894 19.894 0 01-13.331-5.247 20.227 20.227 0 01-5.74-9.247c-.587-1.99.917-3.85 2.953-4.074 2.035-.223 3.795 1.32 4.602 3.219a12.677 12.677 0 003.172 4.52 12.453 12.453 0 008.399 3.312 12.505 12.505 0 008.435-3.2c2.329-2.084 3.814-4.967 4.2-8.093.366-3.126-.404-6.288-2.183-8.856a12.65 12.65 0 00-7.445-5.135 12.444 12.444 0 00-8.93 1.21 12.596 12.596 0 00-4.162 3.646c-1.23 1.656-3.301 2.735-5.227 2.028z" fill="url(#paint3_linear_2129_21940)"/></g><path d="M196.644 10.329H203v27.807h-6.356V10.33zm-9.323 27.807l-1.39-4.37h-10.329l-1.39 4.37h-6.952l9.455-27.807h8.104l9.454 27.807h-6.952zm-9.812-10.328h6.515l-3.257-10.21-3.258 10.21zm-10.26 10.328h-6.833l-3.694-5.243-3.695 5.243h-6.833l7.111-10.09-6.872-9.772h6.833l3.456 4.926 3.456-4.926h6.833l-6.873 9.772 7.111 10.09zm-35.388-7.547c.689 1.854 2.278 2.78 4.767 2.78 1.616 0 2.887-.503 3.814-1.51l4.767 2.742c-1.96 2.728-4.846 4.092-8.66 4.092-3.337 0-6.012-.993-8.025-2.98-1.986-1.986-2.979-4.489-2.979-7.508 0-2.992.98-5.482 2.94-7.468 1.986-2.013 4.528-3.02 7.627-3.02 2.887 0 5.283 1.007 7.19 3.02 1.934 1.986 2.9 4.476 2.9 7.468 0 .848-.079 1.642-.238 2.384h-14.103zm-.119-4.45h8.541c-.583-2.092-1.986-3.138-4.211-3.138-2.304 0-3.747 1.046-4.33 3.138zm-16.825-8.421c2.277 0 4.105.754 5.482 2.264 1.377 1.483 2.066 3.47 2.066 5.959v12.195h-5.959V26.457c0-1.006-.252-1.8-.755-2.383-.477-.583-1.179-.874-2.105-.874-.98 0-1.748.33-2.305.993-.529.662-.794 1.576-.794 2.74v11.203h-5.959V26.457c0-1.006-.252-1.8-.755-2.383-.476-.583-1.178-.874-2.105-.874-.98 0-1.748.33-2.304.993-.53.662-.795 1.576-.795 2.74v11.203H92.67V18.274h5.96V20.1c1.085-1.589 2.859-2.383 5.322-2.383 2.305 0 4.039.873 5.205 2.622 1.218-1.748 3.138-2.622 5.76-2.622zM85.08 34.522c-2.808 2.78-6.224 4.17-10.25 4.17-4.025 0-7.442-1.39-10.249-4.17-2.807-2.781-4.21-6.21-4.21-10.29 0-4.078 1.403-7.508 4.21-10.288 2.807-2.781 6.224-4.172 10.25-4.172 4.025 0 7.441 1.39 10.248 4.172 2.808 2.78 4.211 6.21 4.211 10.289 0 4.078-1.403 7.508-4.21 10.289zm-16.05-4.33c1.563 1.535 3.496 2.303 5.8 2.303s4.224-.767 5.76-2.304c1.563-1.536 2.344-3.522 2.344-5.958 0-2.437-.781-4.423-2.344-5.96-1.536-1.535-3.456-2.303-5.76-2.303s-4.237.768-5.8 2.304c-1.536 1.536-2.304 3.522-2.304 5.959 0 2.436.768 4.422 2.304 5.958z" fill="#E1E7EB"/><defs><linearGradient id="paint0_linear_2129_21940" x1="13.692" y1=".001" x2="13.692" y2="48.459" gradientUnits="userSpaceOnUse"><stop stop-color="#68E1FC"/><stop offset="1" stop-color="#DBFFFF" stop-opacity=".5"/></linearGradient><linearGradient id="paint1_linear_2129_21940" x1="24.081" y1="49.347" x2="36.777" y2="2.648" gradientUnits="userSpaceOnUse"><stop stop-color="#68E1FC"/><stop offset="1" stop-color="#DBFFFF" stop-opacity=".5"/></linearGradient><linearGradient id="paint2_linear_2129_21940" x1="19.03" y1="3.884" x2="19.03" y2="44.492" gradientUnits="userSpaceOnUse"><stop stop-color="#DBFFFF"/><stop offset="1" stop-color="#68E1FC"/></linearGradient><linearGradient id="paint3_linear_2129_21940" x1="18.961" y1="43.891" x2="29.61" y2="4.72" gradientUnits="userSpaceOnUse"><stop stop-color="#DBFFFF"/><stop offset="1" stop-color="#68E1FC"/></linearGradient></defs></svg>
